X: 41
T:Epsom New Mills (The Pursuit)
M:4/4
L:1/8
K:G
G2|E3 F G2 B2|d3 e dedc|B2 d2 f2 B2|A4 E2 E2|G3A B2 d2|g3 a g2 e2|g3 a g age d2 B4:|
|:ba|g3 a g2 ba|g3 a gage|dedB dedB|A2 e4 f2|g3 a g2 fe|d3 e d2 cd| G3 A B2 e2|d2 B4:|

